build/img/svg/time-reverb.svg

<svg width="101" height="93" viewBox="0 0 101 93" fill="none" xmlns="http://www.w3.org/2000/svg">
<g opacity="0.8" clip-path="url(#clip0_301_2)">
<path d="M87.4296 13.6225C83.0941 9.26885 77.9406 5.82287 72.2679 3.48455C66.5953 1.14622 60.5165 -0.0378898 54.3844 0.000924205C48.2522 0.0397382 42.1888 1.3007 36.546 3.71065C30.9032 6.1206 25.7933 9.63154 21.5128 14.0397C21.2745 14.2734 21.0851 14.5525 20.9558 14.8607C20.8265 15.1689 20.7599 15.4999 20.7599 15.8344C20.7599 16.1688 20.8264 16.4998 20.9557 16.808C21.085 17.1162 21.2744 17.3954 21.5127 17.629C21.751 17.8627 22.0334 18.0462 22.3434 18.1687C22.6534 18.2912 22.9846 18.3502 23.3177 18.3424C23.6507 18.3345 23.9788 18.2598 24.2827 18.1228C24.5865 17.9858 24.8601 17.7891 25.0871 17.5445C28.9277 13.5676 33.5278 10.4094 38.6124 8.2587C43.697 6.10801 49.1615 5.00907 54.679 5.02763C77.4756 5.00677 96.0121 23.6151 96.0121 46.4896C96.0121 69.3641 77.4756 87.9933 54.679 87.9933C31.8825 87.9933 13.346 69.385 13.346 46.5V45.9785L17.4606 50.1091C17.93 50.5774 18.5651 50.84 19.2269 50.8392C19.888 50.836 20.5217 50.5741 20.9933 50.1091C21.2255 49.8763 21.4097 49.5999 21.5353 49.2956C21.661 48.9914 21.7257 48.6652 21.7257 48.3358C21.7257 48.0065 21.661 47.6803 21.5353 47.376C21.4097 47.0718 21.2255 46.7954 20.9933 46.5626L12.6394 38.1555C12.4076 37.9224 12.1322 37.7375 11.8291 37.6114C11.5261 37.4852 11.2012 37.4203 10.8731 37.4203C10.5449 37.4203 10.2201 37.4852 9.91697 37.6114C9.61388 37.7375 9.33854 37.9224 9.10669 38.1555L0.732017 46.5626C0.489908 46.7932 0.29625 47.0701 0.162471 47.377C0.0286911 47.6839 -0.0424998 48.0146 -0.0469017 48.3495C-0.0513036 48.6845 0.0111727 49.017 0.136841 49.3273C0.262509 49.6377 0.448823 49.9196 0.68479 50.1565C0.920757 50.3933 1.2016 50.5804 1.51074 50.7065C1.81988 50.8327 2.15106 50.8954 2.48474 50.891C2.81842 50.8866 3.14783 50.8151 3.45355 50.6808C3.75927 50.5465 4.0351 50.3521 4.26476 50.1091L8.37936 45.9785V46.5C8.37804 55.6971 11.0938 64.688 16.1833 72.3354C21.2727 79.9828 28.5071 85.9432 36.9713 89.4626C45.4356 92.9821 54.7494 93.9024 63.7348 92.1072C72.7202 90.3121 80.9733 85.8821 87.4504 79.3776C96.1301 70.6532 101.004 58.826 101 46.4957C100.996 34.1654 96.1148 22.3413 87.4296 13.6225Z" fill="white"/>
</g>
<path d="M55.8989 55H53.6284V39.9487L49.0752 41.6211V39.5703L55.5449 37.1411H55.8989V55Z" fill="white"/>
<defs>
<clipPath id="clip0_301_2">
<rect width="101" height="93" fill="white"/>
</clipPath>
</defs>
</svg>

<svg width="101" height="93" fill="none" xmlns="http://www.w3.org/2000/svg">
    <g opacity=".8" clip-path="url(#clip0_301_2)">
        <path d="M87.43 13.623A46.3 46.3 0 0072.268 3.485a46.156 46.156 0 00-35.722.226A46.308 46.308 0 0021.513 14.04a2.51 2.51 0 00-.557 2.768 2.509 2.509 0 001.387 1.36 2.492 2.492 0 002.744-.623 41.018 41.018 0 0113.525-9.286A40.887 40.887 0 0154.68 5.028c22.797-.021 41.333 18.587 41.333 41.462 0 22.874-18.536 41.503-41.333 41.503-22.797 0-41.333-18.608-41.333-41.493v-.522l4.115 4.131c.469.468 1.104.731 1.766.73a2.533 2.533 0 001.766-.73 2.506 2.506 0 00.733-1.773 2.514 2.514 0 00-.733-1.773l-8.354-8.407a2.494 2.494 0 00-2.722-.545 2.494 2.494 0 00-.81.545L.732 46.563a2.51 2.51 0 00-.595 2.764 2.51 2.51 0 001.374 1.38 2.49 2.49 0 002.754-.598l4.114-4.13v.521a46.622 46.622 0 007.804 25.835 46.354 46.354 0 0020.788 17.128 46.148 46.148 0 0026.764 2.644 46.26 46.26 0 0023.715-12.73A46.602 46.602 0 00101 46.497a46.603 46.603 0 00-13.57-32.873z" fill="#fff"/>
    </g>
    <path d="M55.899 55h-2.27V39.949l-4.554 1.672v-2.05l6.47-2.43h.354V55z" fill="#fff"/>
    <defs>
        <clipPath id="clip0_301_2">
            <path fill="#fff" d="M0 0h101v93H0z"/>
        </clipPath>
    </defs>
</svg>
